X: 879
T: Clark's hornpipe
C: anon.
O: Ireland
B: Francis O'Neill: "The Dance Music of Ireland" (1907) no. 879
R: Hornpipe
Z: Transcribed by Frank Nordberg - http://www.musicaviva.com
F: http://www.musicaviva.com/abc/tunes/ireland/oneill-1001/oneill-1001-087
9.abc
M: 2/4
L: 1/16
K: D
(3(ABc)|d2AG FDFA|BGBd cBce|fdge afed|c2e2 egfe|d2AG FDFA|BGBd cAce|dbag
fgec|d2f2d2:|
|:(3(efg)|a2fd Adfa|g2ec Aceg|fafd Bged|cedB Agfe|d2AG FDFA|BGBd cAce|dba
g fgec|d2f2d2:|
W:
W:
W: From Musica Viva - http://www.musicaviva.com
W: the Internet center for free sheet music downloads.


